X:1
T:Warrior, CMD
T:Warrior, CMD
T:Archibald McDonald, 1877
T:Public Domain Courtesy of the Cyber Hymnal™
C:Archibald McDonald, 1877
Z:Public Domain
Z:Courtesy of the Cyber Hymnal™
%%score ( 1 2 ) ( 3 4 )
L:1/8
Q:1/4=110
M:4/4
K:D
V:1 treble 
V:2 treble 
V:3 bass 
V:4 bass 
V:1
 A2 | [Fd]2 [Gd]2 [Fd]3 [DE] | [DF]2 [CE]2 D3 [CE] | [DF]2 [DA]2 [DB]2 (AG) | ([DF]4 [CE]2) [CE]2 | %5
 [DF]2 [E^G]2 [EA]2 [Fd]2 | [Ec]2 [EB]2 e2 e2 | [Fe]2 (dB) [EA]2 [E^G]2 | [EA]6 [CA]2 | %9
 [CE]2 [DF]2 [EG]2 [GB]2 | [CE]2 [DF]2 [EG]2 E2 | [DF]2 [DA]2 [DB]2 [Gd]2 | [Fd]4 [Ec]2 A2 | %13
 D3 E F2 G2 | A2 d2 [^Ge]2 x2 | [Af] [Fd]3 [Ge]3 [Fd] | [Fd]6 |] %17
V:2
 A2 | x8 | x8 | x6 E2 | x8 | x8 | x4 (EA) (^G=G) | x2 F2 x4 | x8 | x8 | x8 | x8 | x8 | D3 E F2 G2 | %14
 A2 (Bc) x4 | x8 | x6 |] %17
V:3
 A,2 | [D,A,]2 [D,B,]2 [D,A,]3 [G,,B,] | [A,,A,]2 [A,,G,]2 [D,F,]3 [A,,A,] | %3
 [D,A,]2 [F,=C]2 [G,B,]2 [G,B,]2 | (z4 [A,,A,]2) x2 | [D,A,]2 [D,B,]2 [C,A,]2 [D,A,]2 | %6
 [E,A,]2 z [C,A,]2 [A,,A,]2 x | [D,A,]2 [D,B,]2 [E,C]2 (DB,) | [A,,C]6 [A,,A,]2 | %9
 [G,A,]2 [F,A,]2 [E,A,]2 [C,A,]2 | [G,A,]2 [F,A,]2 [E,A,]2 [C,A,]2 | %11
 [D,A,]2 [F,=C]2 [G,B,]2 [G,_B,]2 | (z4 [A,,A,]2) x2 | D,3 E, F,2 G,2 | A,2 (B,C) D2 [B,D]2 | %15
 [A,D] [A,D]3 [A,,C]3 [D,D] | [D,D]6 |] %17
V:4
 A,2 | x8 | x8 | x8 | (A,6 A,,2) | x8 | x2 (^G,2 D,) x3 | x6 E,2 | x8 | x8 | x8 | x8 | (A,6 A,,2) | %13
 x8 | x8 | x8 | x6 |] %17

